X: 12922
T: Fiddler Around The Faerie Tree
R: hornpipe
M: 4/4
K: Gmajor
(3DEF|:G2 BG AB cA|de fd dc BA|~B2 BG AB AG|FG AB cA FA|
GA (3BAG AB (3cBA|de fd dc BA|(3Bcd (3gdB cA GF|1 D2 G2 G2 (3DEF:|2 D2 G2 GB ef||
|:g2 eg f2 ed|g2 eg ef (3gfe|de fg ab ag|ff (3gfe de dc|
B2 GB AF D2|Bc BG AB cA|de fd gd (3Bcd|ec AF GF ED|
GA (3BAG AB (3cBA|de fd dc BA|(3Bcd (3gdB cA GF|1 D2 G2 GB ef:|2 D2 G2 G2||

